public/images/share.svg

<svg xmlns="http://www.w3.org/2000/svg" width="100" height="100" viewBox="0 0 1024 1024"><path fill="#40648a" d="M865 527q-14 0-24 10t-10 24v297q0 3-1.5 5.5t-4 4Q823 869 820 869H145q-3 0-6-1.5t-4.5-4Q133 861 133 858V187q0-3 1.5-6t4.5-4.5q3-1.5 6-1.5h409q14 0 24-10t10-24q0-9-4.5-16.5T571 112q-8-5-17-5H145q-22 0-40 11t-28.5 29Q66 165 66 187v671q0 32 23 55.5t56 23.5h675q32 0 55.5-23.5T899 858V561q0-5-2-10.5t-5-9.5q-3-4-7-7t-9.5-5q-5.5-2-10.5-2zm92-263L786 95q-5-5-11.5-7.5t-13-2.5q-6.5 0-13 2.5T738 95q-10 10-10 24t10 24l114 113q-263 10-407 218-61 88-81 171-1 5-.5 10.5T366 666q2 5 5.5 8.5t8 6.5q4.5 3 9.5 4t8 1q8 0 15-3t12-9.5q5-6.5 6-13.5l7-23q4-14 18.5-47.5t33.5-64q19-30.5 53.5-67.5t76-64.5Q660 366 721.5 346T853 323L731 452q-10 10-9.5 24t10.5 23.5q10 9.5 24 9.5t24-11l178-186q4-4 6-9t3-10q1-5 0-10t-3.5-10q-2.5-5-6.5-9z"/></svg>

<?xml version="1.0" encoding="utf-8"?>
  <!DOCTYPE svg PUBLIC "-//W3C//DTD SVG 1.1//EN" "http://www.w3.org/Graphics/SVG/1.1/DTD/svg11.dtd">
  <svg version="1.1" xmlns="http://www.w3.org/2000/svg" xmlns:xlink="http://www.w3.org/1999/xlink"   x="0" y="0"   width="100px" height="100px"  viewBox="0 0 1024 1024">
  <path fill="#40648a" d="M865 527L865 527Q851 527 841 537 831 547 831 561L831 561 831 858Q831 861 829.5 863.5 828 866 825.5 867.5 823 869 820 869L820 869 145 869Q142 869 139 867.5 136 866 134.5 863.5 133 861 133 858L133 858 133 187Q133 184 134.5 181 136 178 139 176.5 142 175 145 175L145 175 554 175Q568 175 578 165 588 155 588 141L588 141Q588 132 583.5 124.5 579 117 571 112 563 107 554 107L554 107 145 107Q123 107 105 118 87 129 76.5 147 66 165 66 187L66 187 66 858Q66 890 89 913.5 112 937 145 937L145 937 820 937Q852 937 875.5 913.5 899 890 899 858L899 858 899 561Q899 556 897 550.5 895 545 892 541 889 537 885 534 881 531 875.5 529 870 527 865 527ZM957 264L957 264 786 95Q781 90 774.5 87.5 768 85 761.5 85 755 85 748.5 87.5 742 90 738 95L738 95Q728 105 728 119 728 133 738 143L738 143 852 256Q589 266 445 474L445 474Q384 562 364 645L364 645Q363 650 363.5 655.5 364 661 366 666 368 671 371.5 674.5 375 678 379.5 681 384 684 389 685 394 686 397 686L397 686Q405 686 412 683 419 680 424 673.5 429 667 430 660L430 660 437 637Q441 623 455.5 589.5 470 556 489 525.5 508 495 542.5 458 577 421 618.5 393.5 660 366 721.5 346 783 326 853 323L853 323 731 452Q721 462 721.5 476 722 490 732 499.5 742 509 756 509 770 509 780 498L780 498 958 312Q962 308 964 303 966 298 967 293 968 288 967 283 966 278 963.5 273 961 268 957 264Z"/>
  </svg>
